X:1
T:Alleluia
T:Johannes de Cleve (ca. 1592 - 1582)
T:Proprium "Gaudeamus omnes in Domino"
T:Alleluia
C:Johannes de Cleve (ca. 1592 - 1582)
Z:Proprium "Gaudeamus omnes in Domino"
%%score [ 1 2 3 4 ]
L:1/8
M:4/2
K:C
V:1 treble nm="SOPRANO" snm="S."
V:2 treble nm="ALTO" snm="A."
V:3 treble-8 transpose=-12 nm="TENOR" snm="T."
V:4 bass nm="BASS" snm="B."
V:1
 z8 G8- | G8 G8 | G8 A8 | F6 G2 A2 G2 A2 B2 | c8 B8 | A8 c8 | B4 A8 G4- | G4 ^F4 G8- | G16!fine! || %9
w: Al-|* le-|lu- *|ia, _ _ _ _ _|_ al-|le lu-||* * ia.|_|
 G16 | G8 A8 | F8 A8- | A4 G4 c8 | A4 d8 c4- | c4 B4 c8 | z8 A8- | A8 G4 G4 | A8 A4 A4 | A4 A4 G8 | %19
w: Ve-|ni- *|te ad|_ me om|_ _ _|* * nes|qui|_ la- bo-|ra- tis et|o- ne- ra-|
 A4 G6 ^FE F4 | G16 | z4 G4 A8 | G8 z4 =F4 | A4 A4 c8 | G6 A2 B4 A4 | A4 G8 ^F4 | G16- | G16- | %28
w: ti e- * * *|stis|et e-|go re-|fi- ci- am|vos. _ _ _|_ _ _|||
"^D.C." G16 |] %29
w: |
V:2
 D8 E4 E4 | D8 E8- | E4 E4 C8 | D8 C4 F4 | G12 G4 | G8 E8- | E4 C4 E8 | D8 B,4 D4 | E4 E4 D8 || %9
w: Al- le- lu-|ia, al-|* le- lu-|ia, al- le-|lu- ia,|al- le|_ lu- ia,|_ _ al-|le- lu- ia.|
 D8 E8- | E4 D4 D6 CB, | A,4 D4 F8 | E2 D2 E2 F2 G4 A4- | A4 A4 A4 F4 | G16 | G8 F4 E4- | %16
w: Ve- ni|_ te, ve- * *|ni- te, ve-|ni- * * * te ad|_ me om- nes|qui|la- bo- ra-|
 E2 DC D4 E8 | z4 E4 F4 E4 | F8 E8 | E8 D8 | B,4 D4 E8 | D4 D4 F4 D4 | E8 C4 D4 | F8 E8 | %24
w: * * * * tis|et o- ne-|ra- ti|e- *|stis et e-|go re- fi- ci-|am vos, _|_ _|
 z4 G4 G4 F4 | F4 D4 D6 C2 | B,4 D4 E8 | D4 B,4 C4 D4 | E8 D8 |] %29
w: et e- go|re- fi- ci- am|vos, et e-|go re- fi- ci-|am vos.|
V:3
 G16 | B8 c8 | B8 A8 | z4 A6 B2 c2 d2 | e4 e4 d8- | d4 d4 c6 BA | G2 E2 A2 B2 c6 B2 | %7
w: Al-|le- lu-|* ia,|al- * * *|* le- lu-|* ia, al- * *|le- * * * lu- *|
 A2 G2 A4 G4 B4 | c4 c4 B8 || G8 c8- | c4 B4 A4 A4 | d12 c4 | B4 B4 e4 c4 | f8 e4 d2 c2 | %14
w: * * * ia, al-|le- lu- ia.|Ve- ni-|* * te, ve-|ni- *|te, ve- ni- te|ad me _ _|
 d8 c4 e4- | e4 d4 c4 B4 | A8 B8 | c8 d4 c4 | d8 B8 | c8 A8 | G4 B4 c8 | B4 B4 A4 A4 | B8 A8 | %23
w: om- nes qui|_ la- bo- *|ra- tis|et o- ne-|ra- ti|e- *|stis et e-|go re- fi- ci-|am vos,|
 z4 A4 A2 B2 c2 d2 | e4 e4 d8 | c4 B4 A8 | G4 B4 c8 | B4 d4 e4 d4 | c8 B8 |] %29
w: et e- * * *|* go re-|fi- ci- am|vos, et e-|go re- fi- ci-|am vos.|
V:4
 z4 G,4 E,4 C,4 | G,4 G,,4 C,2 B,,2 C,2 D,2 | E,4 E,4 A,,4 A,,4 | D,6 E,2 F,4 F,4 | %4
w: Al- le- lu-|ia, al- le- * * *|* lu- ia, al-|le- * * lu-|
 C,2 D,2 E,2 F,2 G,4 G,,4 | D,4 D,4 A,,2 B,,2 C,2 D,2 | E,4 F,4 C,8 | D,8 G,,4 G,4 | %8
w: ia, _ _ _ al- le-|lu- ia, _ _ _ _|_ al- le-|lu- ia, al-|
 E,4 C,4 G,,8 || z8 z8 | z8 D,8- | D,8 D,8 | E,8 C,4 F,4- | F,4 D,4 A,8 | G,8 C,4 C4- | %15
w: le- lu- ia.||Ve-|* ni-|* te ad|_ me om-|* nes qui|
 C4 B,4 A,4 G,4 | F,8 E,8 | A,,8 D,4 A,4 | D,8 E,8 | C,8 D,8 | G,,4 G,4 C,2 D,2 E,2 F,2 | %21
w: _ la- bo- *|ra tis|et o- ne-|ra- ti|e- *|stis et e- * * *|
 G,4 G,,4 D,4 F,4 | E,8 A,,4 D,4 | D,2 E,2 F,2 G,2 A,4 A,,2 B,,2 | C,2 D,2 E,2 F,2 G,4 D,4 | %25
w: go re- fi- ci-|am vos, et|e- * * * go re- *||
 F,4 G,4 D,8 | G,,4 G,4 C,2 D,2 E,2 F,2 | G,4 G,4 C,4 G,,4 | C,8 G,,8 |] %29
w: fi- ci- am|vos, et e- * * *|go re- fi- ci-|am vos.|

